resources/icons/20px/add-location.svg

<?xml version="1.0" encoding="UTF-8"?>
<svg width="20px" height="20px" viewBox="0 0 20 20" version="1.1" xmlns="http://www.w3.org/2000/svg" xmlns:xlink="http://www.w3.org/1999/xlink">
    <g stroke="none" stroke-width="1" fill="none" fill-rule="evenodd">
        <path d="M10,0 C10.5522847,3.38176876e-17 11,0.44771525 11,1 C11,1.55228475 10.5522847,2 10,2 C5.581722,2 2,5.581722 2,10 C2,14.418278 5.581722,18 10,18 C14.418278,18 18,14.418278 18,10 C18,9.44771525 18.4477153,9 19,9 C19.5522847,9 20,9.44771525 20,10 C20,15.5228475 15.5228475,20 10,20 C4.4771525,20 -9.50500275e-16,15.5228475 -6.123234e-16,10 C-2.74146524e-16,4.4771525 4.4771525,-3.38176876e-16 10,0 Z M10,6 C12.209139,6 14,7.790861 14,10 C14,12.209139 12.209139,14 10,14 C7.790861,14 6,12.209139 6,10 C6,7.790861 7.790861,6 10,6 Z M16,0 C16.6,0 17,0.4 17,1 L17,1 L17,3 L19,3 C19.6,3 20,3.4 20,4 C20,4.6 19.6,5 19,5 L19,5 L17,5 L17,7 C17,7.6 16.6,8 16,8 C15.4,8 15,7.6 15,7 L15,7 L15,5 L13,5 C12.4,5 12,4.6 12,4 C12,3.5 12.4,3 13,3 L13,3 L15,3 L15,1 C15,0.4 15.4,0 16,0 Z" fill="#000000"></path>
    </g>
</svg>

<svg xmlns="http://www.w3.org/2000/svg" viewBox="0 0 20 20">
  <path d="M10 0a1 1 0 0 1 0 2 8 8 0 1 0 8 8 1 1 0 0 1 2 0c0 5.523-4.477 10-10 10S0 15.523 0 10 4.477 0 10 0m0 6a4 4 0 1 1 0 8 4 4 0 0 1 0-8m6-6c.6 0 1 .4 1 1v2h2c.6 0 1 .4 1 1s-.4 1-1 1h-2v2c0 .6-.4 1-1 1s-1-.4-1-1V5h-2c-.6 0-1-.4-1-1 0-.5.4-1 1-1h2V1c0-.6.4-1 1-1"/>
</svg>
